X:3
T:Inspiration's Festive Reel
C:Armand Aromin
M:4/4
L:1/8
H:3/12/04
K:A
deae deae | ceae ceae | Beae Beae | Bege Bege |
Aefe Aefe | Aefe Aefe :|
|: Aefe fafa | Aefe fafa | bafe dB A2 |
ABde fe e2| bafe dB A2 | ABde fd d2 :|
